assets/home-tab/Asset/scananyQR.svg

<svg width="24" height="24" viewBox="0 0 24 24" fill="none" xmlns="http://www.w3.org/2000/svg">
<path fill-rule="evenodd" clip-rule="evenodd" d="M0.84859 0.889994C0.26135 1.48137 0.200361 2.21796 0.078384 3.69112C-0.0342434 5.05136 -0.0220487 6.2948 0.0928271 7.64303C0.226446 9.21124 0.293256 9.99534 0.891369 10.5873C1.48948 11.1793 2.27107 11.2378 3.83425 11.3548C5.11529 11.4507 6.27143 11.4523 7.50621 11.3642C9.08811 11.2512 9.87906 11.1948 10.478 10.6103C11.0769 10.0258 11.1553 9.20891 11.3121 7.57503C11.4399 6.24419 11.4759 5.02587 11.3521 3.61332C11.227 2.18504 11.1644 1.47091 10.5789 0.883321C9.99335 0.295737 9.26198 0.229106 7.79924 0.0958434C6.39372 -0.0322066 5.11455 -0.0320001 3.68163 0.0967806C2.18443 0.231338 1.43583 0.298617 0.84859 0.889994ZM3.80019 3.81933C3.49183 4.13066 3.47419 4.49499 3.43892 5.22367C3.42373 5.53736 3.42549 5.84081 3.44233 6.15248C3.48434 6.92998 3.50535 7.31873 3.81867 7.62894C4.13199 7.93915 4.51986 7.95623 5.29562 7.9904C5.5658 8.0023 5.82644 8.00305 6.09082 7.99296C6.87827 7.96288 7.272 7.94784 7.58666 7.64164C7.90133 7.33544 7.92791 6.92994 7.98107 6.11895C8.00134 5.8097 8.00647 5.50705 7.99071 5.18496C7.95625 4.48109 7.93902 4.12916 7.6309 3.81809C7.32277 3.50702 6.96087 3.48585 6.23707 3.44351C5.89553 3.42354 5.56551 3.42355 5.21977 3.44359C4.47896 3.48654 4.10856 3.50801 3.80019 3.81933Z" fill="white"/>
<path d="M12.6107 14.4171C12.6717 13.6805 12.7022 13.3122 12.9958 13.0165C13.2895 12.7209 13.6638 12.6872 14.4124 12.6199C15.1288 12.5555 15.7684 12.5554 16.4712 12.6195C17.2025 12.6861 17.5682 12.7194 17.861 13.0132C18.1538 13.307 18.1851 13.6641 18.2476 14.3782C18.3095 15.0845 18.2915 15.6936 18.2276 16.3591C18.1492 17.176 18.11 17.5845 17.8105 17.8767C17.5111 18.1689 17.1156 18.1972 16.3247 18.2536C15.7073 18.2977 15.1292 18.2969 14.4887 18.249C13.7071 18.1905 13.3163 18.1612 13.0172 17.8652C12.7182 17.5692 12.6848 17.1772 12.618 16.3931C12.5605 15.7189 12.5544 15.0972 12.6107 14.4171Z" fill="white"/>
<path d="M18.325 20.1313C18.386 19.3947 18.4164 19.0265 18.7101 18.7308C19.0037 18.4351 19.378 18.4014 20.1266 18.3342C20.843 18.2698 21.4826 18.2697 22.1854 18.3337C22.9168 18.4003 23.2824 18.4336 23.5752 18.7274C23.868 19.0212 23.8993 19.3783 23.9618 20.0924C24.0237 20.7987 24.0057 21.4079 23.9418 22.0733C23.8634 22.8902 23.8242 23.2987 23.5248 23.5909C23.2253 23.8832 22.8298 23.9114 22.0389 23.9679C21.4215 24.0119 20.8434 24.0111 20.2029 23.9632C19.4213 23.9047 19.0305 23.8754 18.7315 23.5794C18.4324 23.2834 18.399 22.8914 18.3322 22.1073C18.2747 21.4332 18.2686 20.8115 18.325 20.1313Z" fill="white"/>
<path fill-rule="evenodd" clip-rule="evenodd" d="M13.4201 0.889994C12.8329 1.48137 12.7719 2.21796 12.6499 3.69112C12.5373 5.05136 12.5495 6.2948 12.6644 7.64303C12.798 9.21124 12.8648 9.99534 13.4629 10.5873C14.061 11.1793 14.8426 11.2378 16.4058 11.3548C17.6868 11.4507 18.843 11.4523 20.0778 11.3642C21.6597 11.2512 22.4506 11.1948 23.0495 10.6103C23.6484 10.0258 23.7268 9.20891 23.8837 7.57503C24.0114 6.24419 24.0474 5.02587 23.9237 3.61332C23.7986 2.18504 23.736 1.47091 23.1504 0.883321C22.5649 0.295737 21.8335 0.229106 20.3708 0.0958434C18.9653 -0.0322066 17.6861 -0.0320001 16.2532 0.0967806C14.756 0.231338 14.0074 0.298617 13.4201 0.889994ZM16.3718 3.81933C16.0634 4.13066 16.0458 4.49499 16.0105 5.22367C15.9953 5.53736 15.9971 5.84081 16.0139 6.15248C16.0559 6.92998 16.0769 7.31873 16.3902 7.62894C16.7036 7.93915 17.0914 7.95623 17.8672 7.9904C18.1374 8.0023 18.398 8.00305 18.6624 7.99296C19.4498 7.96288 19.8436 7.94784 20.1582 7.64164C20.4729 7.33544 20.4995 6.92994 20.5526 6.11895C20.5729 5.8097 20.578 5.50705 20.5623 5.18496C20.5278 4.48109 20.5106 4.12916 20.2025 3.81809C19.8943 3.50702 19.5324 3.48585 18.8086 3.44351C18.4671 3.42354 18.1371 3.42355 17.7913 3.44359C17.0505 3.48654 16.6801 3.50801 16.3718 3.81933Z" fill="white"/>
<path fill-rule="evenodd" clip-rule="evenodd" d="M0.84859 13.4615C0.26135 14.0529 0.200361 14.7895 0.078384 16.2627C-0.0342434 17.6229 -0.0220487 18.8663 0.0928271 20.2146C0.226446 21.7828 0.293256 22.5669 0.891369 23.1589C1.48948 23.7509 2.27107 23.8094 3.83425 23.9264C5.11529 24.0222 6.27143 24.0239 7.50621 23.9357C9.08811 23.8228 9.87906 23.7663 10.478 23.1819C11.0769 22.5974 11.1553 21.7805 11.3121 20.1466C11.4399 18.8157 11.4759 17.5974 11.3521 16.1849C11.227 14.7566 11.1644 14.0425 10.5789 13.4549C9.99335 12.8673 9.26198 12.8007 7.79924 12.6674C6.39372 12.5393 5.11455 12.5395 3.68163 12.6683C2.18443 12.8029 1.43583 12.8702 0.84859 13.4615ZM3.80019 16.3909C3.49183 16.7022 3.47419 17.0666 3.43892 17.7952C3.42373 18.1089 3.42549 18.4124 3.44233 18.7241C3.48434 19.5015 3.50535 19.8903 3.81867 20.2005C4.13199 20.5107 4.51986 20.5278 5.29562 20.562C5.5658 20.5739 5.82644 20.5746 6.09082 20.5645C6.87827 20.5344 7.272 20.5194 7.58666 20.2132C7.90133 19.907 7.92791 19.5015 7.98107 18.6905C8.00134 18.3813 8.00647 18.0786 7.99071 17.7565C7.95625 17.0527 7.93902 16.7007 7.6309 16.3897C7.32277 16.0786 6.96087 16.0574 6.23707 16.0151C5.89553 15.9951 5.56551 15.9951 5.21977 16.0152C4.47896 16.0581 4.10856 16.0796 3.80019 16.3909Z" fill="white"/>
</svg>

<svg xmlns="http://www.w3.org/2000/svg" width="24" height="24" fill="none" viewBox="0 0 24 24"><path fill="#fff" fill-rule="evenodd" d="M.849.89C.26 1.481.2 2.218.079 3.691a23 23 0 0 0 .014 3.952c.133 1.568.2 2.352.798 2.944s1.38.65 2.943.768a24.6 24.6 0 0 0 3.672.01c1.582-.114 2.373-.17 2.972-.755.599-.584.677-1.401.834-3.035.128-1.33.164-2.55.04-3.962-.125-1.428-.188-2.142-.773-2.73C9.993.296 9.262.23 7.799.096a22 22 0 0 0-4.117 0C2.184.232 1.436.3.849.89M3.8 3.82c-.308.31-.326.675-.361 1.404-.015.313-.014.617.003.928.042.778.063 1.167.377 1.477.313.31.7.327 1.477.361.27.012.53.013.795.003.787-.03 1.181-.045 1.496-.351.314-.307.34-.712.394-1.523.02-.31.025-.612.01-.934-.035-.704-.052-1.056-.36-1.367s-.67-.332-1.394-.374a9 9 0 0 0-1.017 0c-.741.043-1.111.064-1.42.375" clip-rule="evenodd"/><path fill="#fff" d="M12.61 14.417c.062-.736.092-1.105.386-1.4.293-.296.668-.33 1.416-.397a11 11 0 0 1 2.06 0c.73.066 1.096.1 1.389.393s.324.651.387 1.365c.061.707.043 1.316-.02 1.981-.079.817-.118 1.225-.418 1.518-.299.292-.694.32-1.485.377-.618.044-1.196.043-1.836-.005-.782-.058-1.173-.088-1.472-.384s-.332-.688-.399-1.472a11.5 11.5 0 0 1-.007-1.976m5.714 5.714c.061-.736.091-1.105.385-1.4.294-.296.668-.33 1.417-.397a11 11 0 0 1 2.058 0c.732.066 1.097.1 1.39.393s.324.651.387 1.365a10.4 10.4 0 0 1-.02 1.981c-.079.817-.118 1.226-.417 1.518-.3.292-.695.32-1.486.377a12 12 0 0 1-1.836-.005c-.782-.058-1.172-.088-1.471-.384s-.333-.688-.4-1.472a11.5 11.5 0 0 1-.007-1.976"/><path fill="#fff" fill-rule="evenodd" d="M13.42.89c-.587.591-.648 1.328-.77 2.801-.113 1.36-.1 2.604.014 3.952.134 1.568.2 2.352.799 2.944.598.592 1.38.65 2.943.768a24.6 24.6 0 0 0 3.672.01c1.582-.114 2.373-.17 2.971-.755.6-.584.678-1.401.835-3.035.127-1.33.163-2.55.04-3.962-.125-1.428-.188-2.142-.774-2.73-.585-.587-1.316-.654-2.78-.787a22 22 0 0 0-4.117 0C14.756.232 14.007.3 13.42.89m2.952 2.93c-.309.31-.326.675-.361 1.404a9 9 0 0 0 .003.928c.042.778.063 1.167.376 1.477.314.31.701.327 1.477.361.27.012.531.013.795.003.788-.03 1.182-.045 1.496-.351.315-.307.341-.712.395-1.523.02-.31.025-.612.01-.934-.035-.704-.052-1.056-.36-1.367-.309-.311-.67-.332-1.394-.374a9 9 0 0 0-1.018 0c-.74.043-1.11.064-1.42.375M.849 13.462c-.588.59-.649 1.328-.77 2.8a23 23 0 0 0 .014 3.953c.133 1.568.2 2.352.798 2.944s1.38.65 2.943.767c1.281.096 2.437.098 3.672.01 1.582-.113 2.373-.17 2.972-.754.599-.585.677-1.401.834-3.035.128-1.331.164-2.55.04-3.962-.125-1.428-.188-2.142-.773-2.73-.586-.588-1.317-.654-2.78-.788a22 22 0 0 0-4.117.001c-1.498.135-2.246.202-2.833.793M3.8 16.39c-.308.311-.326.676-.361 1.404-.015.314-.014.617.003.93.042.776.063 1.165.377 1.476.313.31.7.327 1.477.361.27.012.53.013.795.002.787-.03 1.181-.045 1.496-.35.314-.307.34-.712.394-1.523.02-.31.025-.612.01-.934-.035-.704-.052-1.056-.36-1.367s-.67-.333-1.394-.375a9 9 0 0 0-1.017 0c-.741.043-1.111.065-1.42.376" clip-rule="evenodd"/></svg>
